!!!!SEGMENT: Lhe2012-Ave_mater_matris_Dei.krn
!!!id: Lhe2012
!!!AGN: Motet
!!!SCT: Perkins (1969)
!!!voices: 4
!!!COM: Jean Lhéritier
!!!OTL: Ave mater matris Dei
**kern	**kern	**kern	**kern
*part4	*part3	*part2	*part1
*staff4	*staff3	*staff2	*staff1
*I"Bassus	*I"Tenor	*I"Altus	*I"Superius
*I'B	*I'T	*I'A	*I'S
*clefF4	*clefGv2	*clefG2	*clefG2
*k[]	*k[]	*k[]	*k[]
*C:	*C:	*C:	*C:
*M2/1	*M2/1	*M2/1	*M2/1
*met(C|)	*met(C|)	*met(C|)	*met(C|)
!!section: Prima pars: Ave mater matris Dei
!!!OMD: Prima pars: Ave mater matris Dei
=1	=1	=1	=1
1r	0E	0r	0r
[1E	.	.	.
=2	=2	=2	=2
1E]	1G	1r	0e
1AA	1A	[1e	.
=3	=3	=3	=3
1E	1G	1e]	1g
1F	[1c	1A	1a
=4	=4	=4	=4
1.E	2c]	1.e	2.g
.	4B	.	.
.	4A	.	4a
.	2G	.	4b
.	.	.	4g
2C	2G	2e	2cc
=5	=5	=5	=5
1D	1d	1f	2b
.	.	.	1a
1E	1B	1e	.
.	.	.	2g#i
=6	=6	=6	=6
1r	2r	2c	0a
.	2A	2.e	.
[1A	2c	.	.
.	.	4d	.
.	2d	[2d	.
=7	=7	=7	=7
1A]	2e	2d]	1r
.	1f	2c	.
1D	.	2d	[1a
.	4e	2f	.
.	4d	.	.
=8	=8	=8	=8
1A	1c	2e	1a]
.	.	1f	.
1B-X	2r	.	1d
.	2G	4e	.
.	.	4d	.
=9	=9	=9	=9
1.A	2.c	2f	1.a
.	.	2e	.
.	4d	.	.
.	4e	1c	.
.	4c	.	.
2F	2f	.	2a
=10	=10	=10	=10
1G	2e	1g	1b
.	1d	.	.
1A	.	1e	[1a
.	2c#i	.	.
=11	=11	=11	=11
2r	2d	2f	2a]
1A	2e	4c	1cc
.	.	4d	.
.	2c	4e	.
.	.	4f	.
2G	[2d	2g	[2b
=12	=12	=12	=12
1F	4d]	1d	4b]
.	4c	.	4a
.	4B	.	1a
.	4A	.	.
1E	1B	1e	.
.	.	.	2g
=13	=13	=13	=13
1AA	1A	0c	2e
.	.	.	2.f
1C	2G	.	.
.	.	.	4e
.	2E	.	[2e
=14	=14	=14	=14
1D	1F	1A	2e]
.	.	.	2d
[1AA	[1E	2r	[1e
.	.	2c	.
=15	=15	=15	=15
1AA]	0E_	2c	1e]
.	.	2c	.
1r	.	1B	2r
.	.	.	2g
=16	=16	=16	=16
1r	1E]	2.e	2g
.	.	.	2g
.	.	4d	.
2r	1r	4c	1e
.	.	4B	.
2A	.	[2c	.
=17	=17	=17	=17
2A	2r	2c]	1a
2A	2e	4B	.
.	.	4A	.
1E	2e	2.B	[1g
.	2e	.	.
.	.	4c	.
=18	=18	=18	=18
2r	0B	1d	2g]
2G	.	.	4f
.	.	.	4e
2G	.	2r	2.d
2G	.	2d	.
.	.	.	4e
=19	=19	=19	=19
0D	2r	2d	4f
.	.	.	4g
.	2d	2d	1a
.	2d	2.A	.
.	2d	.	4g
.	.	4B	4f
=20	=20	=20	=20
2r	2.A	4c	1e
.	.	4d	.
2A	.	1e	.
.	4B	.	.
2A	4c	.	1a
.	4d	.	.
2A	[2e	4d	.
.	.	4c	.
=21	=21	=21	=21
0E	2e]	2B	0g
.	4d	2e	.
.	4c	.	.
.	1B	2e	.
.	.	2e	.
=22	=22	=22	=22
0F	1A	2d	2r
.	.	4c	2a
.	.	4B	.
.	2r	1A	1a
.	2c	.	.
=23	=23	=23	=23
0E	2c	2r	1.g
.	2c	2e	.
.	[1B	2e	.
.	.	2e	2g
=24	=24	=24	=24
1G	1B]	1.d	2g
.	.	.	2g
2D	2.A	.	2f
[2A	.	2e	[2cc
.	4B	.	.
=25	=25	=25	=25
2A]	4c	2f	2cc]
.	4A	.	.
2G	1d	2g	2.b
1A	.	[1e	.
.	.	.	4a
.	2c	.	2a
=26	=26	=26	=26
2E	2B	2e]	2g
2F	2A	2d	1a
1E	1B	1e	.
.	.	.	2g#i
=27	=27	=27	=27
1r	1A	0e	0a
[1A	2r	.	.
.	[2c	.	.
=28	=28	=28	=28
2A]	2c]	2r	1r
2G	2B	1e	.
2A	2c	.	2r
2F	2A	2d	[2a
=29	=29	=29	=29
1E	1B	1e	2a]
.	.	.	2g
2r	2r	1c	1a
[2A	[2c	.	.
=30	=30	=30	=30
2A]	2c]	2r	1e
2G	2B	1e	.
2A	2c	.	2r
2F	2A	2d	[2a
=31	=31	=31	=31
1E	2B	2e	2a]
.	1e	2B	2g
1A	.	4c	2a
.	.	4d	.
.	2c	4e	2cc
.	.	4f	.
=32	=32	=32	=32
1B-X	0d	2g	2b-i
.	.	1f	1a
1B-i	.	.	.
.	.	4e	2g
.	.	4d	.
=33	=33	=33	=33
0A	0e	2c	[0a
.	.	1d	.
.	.	2c#i	.
=34	=34	=34	=34
1r	1f	1d	1a]
1D	[1d	[1f	1r
=35	=35	=35	=35
0A	1d]	1f]	0a
.	1c	1e	.
=36	=36	=36	=36
1D	1.f	1.d	1a
[1A	.	.	[1a
.	4e	4c	.
.	4d	4B	.
=37	=37	=37	=37
1A]	1e	2c	1a]
.	.	2A	.
[1D	1d	2A	[1f
.	.	2A	.
=38	=38	=38	=38
0D]	2r	1.d	0f]
.	2A	.	.
.	[1d	.	.
.	.	2c	.
=39	=39	=39	=39
1.G	2d]	2B	1r
.	2c	2A	.
.	2B	2G	1d
2F	2A	[2d	.
=40	=40	=40	=40
2E	1G	2d]	1.g
2E	.	2c	.
1D	1d	2B	.
.	.	4A	2f
.	.	4B	.
=41	=41	=41	=41
1r	2A	2c	2e
.	2B	1d	2d
1AA	1A	.	1e
.	.	2c	.
=42	=42	=42	=42
1.D	1.F	2.d	2d
.	.	.	2.a
.	.	8cL	.
.	.	8BJ	.
.	.	2A	.
.	.	.	4g
2D	2F	2B	2f
=43	=43	=43	=43
2C	2G	2c	2e
2BB	2D	2G	1d
1AA	1E	1A	.
.	.	.	2c#i
=44	=44	=44	=44
1r	1D	0A	[0d
1D	2r	.	.
.	2A	.	.
=45	=45	=45	=45
1G	1B	1r	0d]
1G	1B	2r	.
.	.	2d	.
=46	=46	=46	=46
1D	1A	2f	2r
.	.	2f	2a
[1A	1r	[1e	2cc
.	.	.	2cc
=47	=47	=47	=47
2A]	2r	1e]	1b
2G	2B	.	.
1F	2c	1A	[1a
.	2d	.	.
=48	=48	=48	=48
1E	2e	2B	2a]
.	2c	1e	2g
2r	2A	.	1f
2D	2B	2d	.
=49	=49	=49	=49
1A	1c	2e	2e
.	.	2c	1a
1B	2r	1d	.
.	2G	.	2g
=50	=50	=50	=50
1A	2c	1e	[0a
.	2c	.	.
1D	2.A	[1f	.
.	4B	.	.
=51	=51	=51	=51
0A	2c	2f]	0a]
.	1d	2f	.
.	.	1e	.
.	2c	.	.
=52	=52	=52	=52
1D	2B	1d	2r
.	2A	.	1a
1G	1B	1d	.
.	.	.	2g
=53	=53	=53	=53
1D	2A	2r	1.a
.	1d	1f	.
1r	.	.	.
.	2c	2e	2a
=54	=54	=54	=54
1r	1d	1f	1a
2r	2G	[1d	1g
[2G	[2B	.	.
=55	=55	=55	=55
2G]	2B]	2d]	2r
2F	2A	2d	1a
1G	1B	1d	.
.	.	.	2g
=56	=56	=56	=56
1D	2A	1f	1a
.	1d	.	.
[1A	.	[1e	2a
.	4c	.	[2cc
.	4B	.	.
=57	=57	=57	=57
2A]	2c	1e]	2cc]
2G	2c	.	2b
1F	1d	1A	1a
=58	=58	=58	=58
[0E	0e	2r	[0g
.	.	2B	.
.	.	2c	.
.	.	2B	.
=59	=59	=59	=59
0E]	2r	1.e	0g_
.	2B	.	.
.	2c	.	.
.	2B	2d	.
=60	=60	=60	=60
2r	1.e	1c	0g]
2E	.	.	.
1G	.	1B	.
.	2d	.	.
=61	=61	=61	=61
1A	1c	2A	2r
.	.	2e	2e
1E	1B	2e	1g
.	.	2e	.
=62	=62	=62	=62
1.A	2A	1c	1a
.	1c	.	.
.	.	1r	1e
2G	2B	.	.
=63	=63	=63	=63
1F	2A	2r	1.a
.	2F	2A	.
1E	1G	2B	.
.	.	2c	2g
=64	=64	=64	=64
1D	0A	1d	1f
1AA	.	1c	2e
.	.	.	[2f
=65	=65	=65	=65
1C	2G	1c	4f]
.	.	.	4e
.	2A	.	1e
1D	1F	1A	.
.	.	.	2d
=66	=66	=66	=66
1r	0E	[0B	[0e
[1G	.	.	.
=67	=67	=67	=67
1G]	1r	1B]	0e]
1E	[1c	1r	.
=68	=68	=68	=68
1.F	1c]	1r	0r
.	1A	[1f	.
2D	.	.	.
=69	=69	=69	=69
1D	1.B	1f]	1r
[1G	.	1d	[1g
.	2G	.	.
=70	=70	=70	=70
2G]	0G	1.e	1g]
2C	.	.	.
1C	.	.	1e
.	.	2c	.
=71	=71	=71	=71
2r	1.A	2c	1.f
1D	.	1d	.
2GG	2G	2B	2d
=72	=72	=72	=72
1GG	1G	1B	0d
[1G	[1B	2r	.
.	.	[2d	.
=73	=73	=73	=73
1G]	2B]	2d]	1.g
.	2B	2d	.
1C	[1c	1e	.
.	.	.	2g
=74	=74	=74	=74
1G	2c]	0d	1g
.	4B	.	.
.	4A	.	.
1G	2B	.	1g
.	2G	.	.
=75	=75	=75	=75
0C	0G	2c	2e
.	.	2e	2g
.	.	2e	2g
.	.	2c	2g
=76	=76	=76	=76
1r	1r	1f	1a
2r	2r	2e	2.b
2E	2G	[2g	.
.	.	.	4a
=77	=77	=77	=77
2E	2G	4g]	2b
.	.	4f	.
2C	2G	1e	1cc
1F	1A	.	.
.	.	2d	4b
.	.	.	4a
=78	=78	=78	=78
1E	1B	1e	1g
[1C	[1e	[1g	[1cc
=79	=79	=79	=79
2C]	2e]	2g]	2cc]
2C	2e	2g	2cc
1G	1d	1g	1b
=80	=80	=80	=80
1A	1c	1e	1a
1E	1B	1e	1g
=81	=81	=81	=81
1.C	1.e	1.g	1.cc
2C	2e	2g	2cc
=82	=82	=82	=82
1G	1d	1g	1b
1A	1c	[1e	[1a
=83	=83	=83	=83
1E	0B	0e]	2a]
.	.	.	4g
.	.	.	4f
1E	.	.	2g
.	.	.	2e
=84	=84	=84	=84
0AA	[0Al	0c	0e
=85	=85	=85	=85
0D	0A_	0d	0f
=86	=86	=86	=86
00AAl	00A]	00cl	00el
==	==	==	==
*-	*-	*-	*-
!!!system-decoration: [*]
!!!RDF**kern: i = editorial accidental
!!!RDF**kern: l = terminal long
!!!ENC: Benjamin Ory
!!!END: 2023/9/18
!!!EED: Benjamin Ory
!!!EEV: 2023/09/18
!!!YEC: Copyright 2023 Benjamin Ory, All Rights Reserved
!!!ONB: Translated from MusicXML on 2023/09/18
